X:146
T:L\"astringe Storpolska
R:sl\"angpolska
H:efter Anders Andersson
A:S\"ormland
Z:id:hn-sp-146
M:3/4
L:1/16
K:D
A2F2 DFAF DFAF | DGBG DGBG DGBG | A2F2 DFAF DFAF |
F3E E2E2 E4 | A2F2 DFAF DFAF | DGBG DGBG DGBG | ABcd e2f2 g2e2 |
dcBc e2d2 d4 :||: A2d2 f2a2 bafa | g2b2 b2g2 ageg |
f2a2 a2fa f2ed | cdef g2eg f2df | efec d2AG F2DF |
A2d2 f2a2 bafa | g2b2 b2g2 ageg | f2a2 a2fa f2ed |
cdef g2eg f2df |1 efec e2dc d3d :|2 efec e2dc d4 ||
<end>
<start>
